ui/StatusQ/src/assets/img/icons/communities.svg

<svg fill="none" height="24" viewBox="0 0 24 24" width="24" xmlns="http://www.w3.org/2000/svg"><path clip-rule="evenodd" d="m2.25 18c0-8.69848 7.05152-15.75 15.75-15.75h1c1.5188 0 2.75 1.23122 2.75 2.75v8c0 1.5188-1.2312 2.75-2.75 2.75h-1c-1.2426 0-2.25 1.0074-2.25 2.25v1c0 1.5188-1.2312 2.75-2.75 2.75h-8c-1.51878 0-2.75-1.2312-2.75-2.75zm15.75-14.25c-7.8701 0-14.25 6.3799-14.25 14.25v1c0 .6904.55964 1.25 1.25 1.25h.75c.27614 0 .5-.2239.5-.5v-1.75c0-6.4893 5.2607-11.75 11.75-11.75h1.75c.2761 0 .5-.22386.5-.5v-.75c0-.69036-.5596-1.25-1.25-1.25zm-7.75 16c0 .2761-.2239.5-.5.5h-1.5c-.27614 0-.5-.2239-.5-.5v-1.75c0-5.6609 4.5891-10.25 10.25-10.25h1.75c.2761 0 .5.22386.5.5v1.5c0 .2761-.2239.5-.5.5h-1.75c-4.2802 0-7.75 3.4698-7.75 7.75zm1.5 0c0 .2761.2239.5.5.5h.75c.6904 0 1.25-.5596 1.25-1.25v-1c0-2.0711 1.6789-3.75 3.75-3.75h1c.6904 0 1.25-.5596 1.25-1.25v-.75c0-.2761-.2239-.5-.5-.5h-1.75c-3.4518 0-6.25 2.7982-6.25 6.25z" fill="#000" fill-rule="evenodd"/></svg>

<svg width="24" height="24" viewBox="0 0 24 24" fill="none" xmlns="http://www.w3.org/2000/svg">
<path fill-rule="evenodd" clip-rule="evenodd" d="M2.25 18C2.25 9.30152 9.30152 2.25 18 2.25H19C20.5188 2.25 21.75 3.48122 21.75 5V13C21.75 14.5188 20.5188 15.75 19 15.75H18C16.7574 15.75 15.75 16.7574 15.75 18V19C15.75 20.5188 14.5188 21.75 13 21.75H5C3.48122 21.75 2.25 20.5188 2.25 19V18ZM18 3.75C10.1299 3.75 3.75 10.1299 3.75 18V19C3.75 19.6904 4.30964 20.25 5 20.25H5.75C6.02614 20.25 6.25 20.0261 6.25 19.75V18C6.25 11.5107 11.5107 6.25 18 6.25H19.75C20.0261 6.25 20.25 6.02614 20.25 5.75V5C20.25 4.30964 19.6904 3.75 19 3.75H18ZM10.25 19.75C10.25 20.0261 10.0261 20.25 9.75 20.25H8.25C7.97386 20.25 7.75 20.0261 7.75 19.75V18C7.75 12.3391 12.3391 7.75 18 7.75H19.75C20.0261 7.75 20.25 7.97386 20.25 8.25V9.75C20.25 10.0261 20.0261 10.25 19.75 10.25H18C13.7198 10.25 10.25 13.7198 10.25 18V19.75ZM11.75 19.75C11.75 20.0261 11.9739 20.25 12.25 20.25H13C13.6904 20.25 14.25 19.6904 14.25 19V18C14.25 15.9289 15.9289 14.25 18 14.25H19C19.6904 14.25 20.25 13.6904 20.25 13V12.25C20.25 11.9739 20.0261 11.75 19.75 11.75H18C14.5482 11.75 11.75 14.5482 11.75 18V19.75Z" fill="black"/>
</svg>
